X:249
T:Sean McGlynn's
R:jig
M:6/8
L:1/8
K:Dmaj
B|AFD ECA,|DFA d2A|def dAF|~G3 EFG|
AdB ~=c3|GE=C EFG|F/G/AF GEA|FDD D2:|
|:E|DFA ~d3|AFD ECA,|DFA dfa|~g3 efg|
afd ecA|~d3 AFD|A,DF GEA|FDD D2:|

